src/assets/cards/platform/Swapbased.svg

<?xml version="1.0" encoding="UTF-8"?>
<!DOCTYPE svg PUBLIC "-//W3C//DTD SVG 1.1//EN" "http://www.w3.org/Graphics/SVG/1.1/DTD/svg11.dtd">
<svg xmlns="http://www.w3.org/2000/svg" version="1.1" width="276px" height="263px" style="shape-rendering:geometricPrecision; text-rendering:geometricPrecision; image-rendering:optimizeQuality; fill-rule:evenodd; clip-rule:evenodd" xmlns:xlink="http://www.w3.org/1999/xlink">
<g><path style="opacity:0.996" fill="#0865fd" d="M 164.5,30.5 C 165.92,33.3489 167.92,34.0156 170.5,32.5C 179.152,34.6589 186.819,38.6589 193.5,44.5C 193.167,47.5 194.5,48.8333 197.5,48.5C 197.088,50.9726 198.088,52.3059 200.5,52.5C 204.101,56.1139 206.435,60.4473 207.5,65.5C 208.43,69.7962 209.263,74.1296 210,78.5C 210.5,90.4954 210.667,102.495 210.5,114.5C 210.5,115.833 210.5,117.167 210.5,118.5C 207.986,111.79 203.986,105.956 198.5,101C 195.595,99.7138 192.595,98.7138 189.5,98C 182.508,97.5004 175.508,97.3337 168.5,97.5C 151.658,97.1702 134.992,97.5035 118.5,98.5C 114.475,98.6301 110.809,99.6301 107.5,101.5C 105.847,101.66 104.514,102.326 103.5,103.5C 100.843,103.935 98.5093,104.935 96.5,106.5C 93.0787,107.539 90.4121,109.539 88.5,112.5C 78.1316,119.885 70.6316,129.552 66,141.5C 65.1785,144.117 64.6785,146.784 64.5,149.5C 63.0576,132.02 62.391,114.353 62.5,96.5C 62.5,90.1667 62.5,83.8333 62.5,77.5C 64.9745,74.7491 65.9745,71.4158 65.5,67.5C 66.0659,64.1268 67.3993,61.1268 69.5,58.5C 71.0481,58.1788 71.7148,57.1788 71.5,55.5C 73.9118,55.3059 74.9118,53.9726 74.5,51.5C 77.2974,51.0334 78.6308,49.3667 78.5,46.5C 81.3667,46.6308 83.0334,45.2974 83.5,42.5C 83.8333,42.5 84.1667,42.5 84.5,42.5C 88.0651,41.5899 90.7317,39.5899 92.5,36.5C 93.8195,35.0582 95.4862,34.3915 97.5,34.5C 102.044,34.5409 106.044,33.2075 109.5,30.5C 127.833,29.1667 146.167,29.1667 164.5,30.5 Z"/></g>
<g><path style="opacity:0.973" fill="#669bf8" d="M 164.5,30.5 C 166.898,30.2594 168.898,30.9261 170.5,32.5C 167.92,34.0156 165.92,33.3489 164.5,30.5 Z"/></g>
<g><path style="opacity:0.712" fill="#609bf5" d="M 109.5,30.5 C 106.044,33.2075 102.044,34.5409 97.5,34.5C 101.098,32.2597 105.098,30.9264 109.5,30.5 Z"/></g>
<g><path style="opacity:0.678" fill="#6497f7" d="M 92.5,36.5 C 90.7317,39.5899 88.0651,41.5899 84.5,42.5C 86.4121,39.5389 89.0787,37.5389 92.5,36.5 Z"/></g>
<g><path style="opacity:0.569" fill="#79a9f5" d="M 83.5,42.5 C 83.0334,45.2974 81.3667,46.6308 78.5,46.5C 79.5794,44.457 81.246,43.1237 83.5,42.5 Z"/></g>
<g><path style="opacity:0.737" fill="#6ca4f6" d="M 193.5,44.5 C 195.167,45.5 196.5,46.8333 197.5,48.5C 194.5,48.8333 193.167,47.5 193.5,44.5 Z"/></g>
<g><path style="opacity:0.569" fill="#7facf6" d="M 78.5,46.5 C 78.6308,49.3667 77.2974,51.0334 74.5,51.5C 75.1237,49.246 76.457,47.5794 78.5,46.5 Z"/></g>
<g><path style="opacity:0.569" fill="#7aacf5" d="M 197.5,48.5 C 198.974,49.4363 199.974,50.7697 200.5,52.5C 198.088,52.3059 197.088,50.9726 197.5,48.5 Z"/></g>
<g><path style="opacity:0.655" fill="#72a7f4" d="M 74.5,51.5 C 74.9118,53.9726 73.9118,55.3059 71.5,55.5C 72.0256,53.7697 73.0256,52.4363 74.5,51.5 Z"/></g>
<g><path style="opacity:0.42" fill="#6ba8f6" d="M 71.5,55.5 C 71.7148,57.1788 71.0481,58.1788 69.5,58.5C 69.427,56.9731 70.0937,55.9731 71.5,55.5 Z"/></g>
<g><path style="opacity:0.898" fill="#6fa5f3" d="M 65.5,67.5 C 65.9745,71.4158 64.9745,74.7491 62.5,77.5C 62.8993,73.8835 63.8993,70.5502 65.5,67.5 Z"/></g>
<g><path style="opacity:0.518" fill="#5393fa" d="M 207.5,65.5 C 210.056,69.3504 211.556,73.6837 212,78.5C 212.5,87.4938 212.666,96.4938 212.5,105.5C 211.912,108.61 211.245,111.61 210.5,114.5C 210.667,102.495 210.5,90.4954 210,78.5C 209.263,74.1296 208.43,69.7962 207.5,65.5 Z"/></g>
<g><path style="opacity:0.979" fill="#26aaef" d="M 118.5,98.5 C 120.833,98.5 123.167,98.5 125.5,98.5C 127.406,99.4824 129.406,100.482 131.5,101.5C 136.679,109.191 141.012,117.358 144.5,126C 145.795,126.702 147.128,127.369 148.5,128C 148.167,128.333 147.833,128.667 147.5,129C 149.21,133.213 151.877,136.713 155.5,139.5C 158.673,145.181 162.339,150.514 166.5,155.5C 168.813,156.273 171.146,156.94 173.5,157.5C 175.529,156.371 175.863,156.871 174.5,159C 176.775,159.405 178.775,158.905 180.5,157.5C 181.833,157.167 183.167,156.833 184.5,156.5C 183.942,157.79 182.942,158.623 181.5,159C 176.899,160.484 172.232,161.65 167.5,162.5C 164.192,163.026 162.026,161.693 161,158.5C 158.921,154.347 157.421,150.014 156.5,145.5C 154.61,145.703 153.11,145.037 152,143.5C 149.867,138.179 146.201,134.513 141,132.5C 142.297,127.715 141.13,123.548 137.5,120C 138.711,118.887 138.711,117.72 137.5,116.5C 134.11,115.132 130.776,113.799 127.5,112.5C 127.244,110.208 127.577,108.041 128.5,106C 124.573,105.124 120.906,103.624 117.5,101.5C 114.167,101.5 110.833,101.5 107.5,101.5C 110.809,99.6301 114.475,98.6301 118.5,98.5 Z"/></g>
<g><path style="opacity:0.986" fill="#22a3f1" d="M 125.5,98.5 C 130.833,98.5 136.167,98.5 141.5,98.5C 141.5,99.5 141.5,100.5 141.5,101.5C 147.535,102.048 150.035,105.381 149,111.5C 150.205,112.071 151.372,112.738 152.5,113.5C 154.827,118.825 157.66,123.825 161,128.5C 161.47,135.15 164.637,140.15 170.5,143.5C 171.154,145.115 171.654,146.782 172,148.5C 173.667,149.5 175.333,150.5 177,151.5C 177.424,154.025 178.59,156.025 180.5,157.5C 178.775,158.905 176.775,159.405 174.5,159C 175.863,156.871 175.529,156.371 173.5,157.5C 171.146,156.94 168.813,156.273 166.5,155.5C 162.339,150.514 158.673,145.181 155.5,139.5C 151.877,136.713 149.21,133.213 147.5,129C 147.833,128.667 148.167,128.333 148.5,128C 147.128,127.369 145.795,126.702 144.5,126C 141.012,117.358 136.679,109.191 131.5,101.5C 129.406,100.482 127.406,99.4824 125.5,98.5 Z"/></g>
<g><path style="opacity:0.972" fill="#1487f6" d="M 118.5,98.5 C 134.992,97.5035 151.658,97.1702 168.5,97.5C 168.5,97.8333 168.5,98.1667 168.5,98.5C 171.559,103.554 175.059,108.221 179,112.5C 179.591,118.364 182.591,122.364 188,124.5C 188.483,125.448 188.649,126.448 188.5,127.5C 190.5,127.5 192.5,127.5 194.5,127.5C 194.374,129.2 193.707,130.7 192.5,132C 194.486,134.426 195.82,137.259 196.5,140.5C 197.298,138.922 197.798,137.256 198,135.5C 198.498,137.544 199.665,138.878 201.5,139.5C 199.902,142.436 197.902,145.103 195.5,147.5C 194.423,148.705 193.09,149.372 191.5,149.5C 189.983,149.489 188.816,148.823 188,147.5C 186.799,144.29 184.799,141.623 182,139.5C 181.484,136.966 180.317,134.8 178.5,133C 178.833,132.667 179.167,132.333 179.5,132C 178.139,130.416 177.472,128.582 177.5,126.5C 175.801,126.66 174.134,126.494 172.5,126C 172.833,125.667 173.167,125.333 173.5,125C 168.417,116.166 163.084,107.499 157.5,99C 152.177,98.5006 146.844,98.334 141.5,98.5C 136.167,98.5 130.833,98.5 125.5,98.5C 123.167,98.5 120.833,98.5 118.5,98.5 Z"/></g>
<g><path style="opacity:0.98" fill="#0e7df8" d="M 168.5,98.5 C 173.844,98.334 179.177,98.5006 184.5,99C 185.328,99.9147 186.328,100.581 187.5,101C 188.842,105.427 191.675,109.26 196,112.5C 197.139,116.112 198.806,119.446 201,122.5C 202.11,124.037 203.61,124.703 205.5,124.5C 205.285,126.179 205.952,127.179 207.5,127.5C 207.075,132.35 205.075,136.35 201.5,139.5C 199.665,138.878 198.498,137.544 198,135.5C 197.798,137.256 197.298,138.922 196.5,140.5C 195.82,137.259 194.486,134.426 192.5,132C 193.707,130.7 194.374,129.2 194.5,127.5C 192.5,127.5 190.5,127.5 188.5,127.5C 188.649,126.448 188.483,125.448 188,124.5C 182.591,122.364 179.591,118.364 179,112.5C 175.059,108.221 171.559,103.554 168.5,98.5 Z"/></g>
<g><path style="opacity:0.994" fill="#0671fb" d="M 168.5,98.5 C 168.5,98.1667 168.5,97.8333 168.5,97.5C 175.508,97.3337 182.508,97.5004 189.5,98C 192.595,98.7138 195.595,99.7138 198.5,101C 203.986,105.956 207.986,111.79 210.5,118.5C 209.875,121.627 208.875,124.627 207.5,127.5C 205.952,127.179 205.285,126.179 205.5,124.5C 203.61,124.703 202.11,124.037 201,122.5C 198.806,119.446 197.139,116.112 196,112.5C 191.675,109.26 188.842,105.427 187.5,101C 186.328,100.581 185.328,99.9147 184.5,99C 179.177,98.5006 173.844,98.334 168.5,98.5 Z"/></g>
<g><path style="opacity:0.989" fill="#2fbceb" d="M 107.5,101.5 C 110.833,101.5 114.167,101.5 117.5,101.5C 116.743,106.809 119.077,110.476 124.5,112.5C 125.641,115.062 126.474,117.728 127,120.5C 129.085,122.082 130.585,124.082 131.5,126.5C 133.225,127.015 134.892,127.682 136.5,128.5C 139.57,135.379 142.236,142.379 144.5,149.5C 148.35,149.701 149.35,151.534 147.5,155C 149.74,155.977 152.073,156.477 154.5,156.5C 156.47,159.548 155.804,161.715 152.5,163C 153.901,163.41 155.234,163.91 156.5,164.5C 151.631,165.751 146.631,165.751 141.5,164.5C 139.557,162.361 138.89,160.028 139.5,157.5C 138.726,156.289 137.893,156.289 137,157.5C 133,150.167 129,142.833 125,135.5C 120.331,131.356 117.165,126.356 115.5,120.5C 111.607,118.364 109.44,115.031 109,110.5C 107.629,107.734 105.796,105.401 103.5,103.5C 104.514,102.326 105.847,101.66 107.5,101.5 Z"/></g>
<g><path style="opacity:0.985" fill="#1b96f3" d="M 141.5,98.5 C 146.844,98.334 152.177,98.5006 157.5,99C 163.084,107.499 168.417,116.166 173.5,125C 173.167,125.333 172.833,125.667 172.5,126C 174.134,126.494 175.801,126.66 177.5,126.5C 177.472,128.582 178.139,130.416 179.5,132C 179.167,132.333 178.833,132.667 178.5,133C 180.317,134.8 181.484,136.966 182,139.5C 184.799,141.623 186.799,144.29 188,147.5C 188.816,148.823 189.983,149.489 191.5,149.5C 191.631,150.239 191.464,150.906 191,151.5C 188.362,152.648 186.196,154.315 184.5,156.5C 183.167,156.833 181.833,157.167 180.5,157.5C 178.59,156.025 177.424,154.025 177,151.5C 175.333,150.5 173.667,149.5 172,148.5C 171.654,146.782 171.154,145.115 170.5,143.5C 164.637,140.15 161.47,135.15 161,128.5C 157.66,123.825 154.827,118.825 152.5,113.5C 151.372,112.738 150.205,112.071 149,111.5C 150.035,105.381 147.535,102.048 141.5,101.5C 141.5,100.5 141.5,99.5 141.5,98.5 Z"/></g>
<g><path style="opacity:0.977" fill="#34c2e9" d="M 103.5,103.5 C 105.796,105.401 107.629,107.734 109,110.5C 109.44,115.031 111.607,118.364 115.5,120.5C 117.165,126.356 120.331,131.356 125,135.5C 129,142.833 133,150.167 137,157.5C 137.893,156.289 138.726,156.289 139.5,157.5C 138.89,160.028 139.557,162.361 141.5,164.5C 140.167,164.5 138.833,164.5 137.5,164.5C 135.871,163.375 134.371,162.041 133,160.5C 130.694,156.332 128.694,151.999 127,147.5C 125.846,146.257 124.512,145.257 123,144.5C 119.786,139.303 116.619,134.136 113.5,129C 113.735,128.127 114.069,127.293 114.5,126.5C 111.176,123.006 108.009,119.339 105,115.5C 105.351,109.577 102.518,106.577 96.5,106.5C 98.5093,104.935 100.843,103.935 103.5,103.5 Z"/></g>
<g><path style="opacity:0.979" fill="#39cae7" d="M 96.5,106.5 C 102.518,106.577 105.351,109.577 105,115.5C 108.009,119.339 111.176,123.006 114.5,126.5C 114.069,127.293 113.735,128.127 113.5,129C 116.619,134.136 119.786,139.303 123,144.5C 124.512,145.257 125.846,146.257 127,147.5C 128.694,151.999 130.694,156.332 133,160.5C 134.371,162.041 135.871,163.375 137.5,164.5C 137.44,165.043 137.107,165.376 136.5,165.5C 133.148,164.774 129.815,163.941 126.5,163C 125.577,160.959 125.244,158.792 125.5,156.5C 123.738,156.643 122.071,156.309 120.5,155.5C 119.41,154.609 119.41,153.609 120.5,152.5C 119.561,150.947 118.394,149.613 117,148.5C 115.27,149.649 113.604,149.649 112,148.5C 111.667,144.833 111.333,141.167 111,137.5C 108.697,135.607 106.53,133.607 104.5,131.5C 104.529,129.971 105.196,128.804 106.5,128C 104.567,127.749 102.734,127.249 101,126.5C 100.667,124.167 100.333,121.833 100,119.5C 98.4728,117.779 97.4728,115.779 97,113.5C 95.7581,112.128 94.2581,111.128 92.5,110.5C 91.3777,111.63 90.0443,112.297 88.5,112.5C 90.4121,109.539 93.0787,107.539 96.5,106.5 Z"/></g>
<g><path style="opacity:0.994" fill="#3fd1e6" d="M 212.5,105.5 C 242.907,126.551 252.741,154.884 242,190.5C 231.076,215.721 211.91,229.888 184.5,233C 164.167,233.667 143.833,233.667 123.5,233C 88.7524,227.252 68.2524,207.085 62,172.5C 61.5005,166.175 61.3338,159.842 61.5,153.5C 62.1174,153.611 62.6174,153.944 63,154.5C 63.3519,152.753 63.8519,151.086 64.5,149.5C 64.6785,146.784 65.1785,144.117 66,141.5C 70.6316,129.552 78.1316,119.885 88.5,112.5C 90.0443,112.297 91.3777,111.63 92.5,110.5C 94.2581,111.128 95.7581,112.128 97,113.5C 97.4728,115.779 98.4728,117.779 100,119.5C 100.333,121.833 100.667,124.167 101,126.5C 102.734,127.249 104.567,127.749 106.5,128C 105.196,128.804 104.529,129.971 104.5,131.5C 106.53,133.607 108.697,135.607 111,137.5C 111.333,141.167 111.667,144.833 112,148.5C 113.604,149.649 115.27,149.649 117,148.5C 118.394,149.613 119.561,150.947 120.5,152.5C 119.41,153.609 119.41,154.609 120.5,155.5C 122.071,156.309 123.738,156.643 125.5,156.5C 125.244,158.792 125.577,160.959 126.5,163C 129.815,163.941 133.148,164.774 136.5,165.5C 137.107,165.376 137.44,165.043 137.5,164.5C 138.833,164.5 140.167,164.5 141.5,164.5C 146.631,165.751 151.631,165.751 156.5,164.5C 159.85,164.665 163.183,164.498 166.5,164C 167.056,163.617 167.389,163.117 167.5,162.5C 172.232,161.65 176.899,160.484 181.5,159C 182.942,158.623 183.942,157.79 184.5,156.5C 186.196,154.315 188.362,152.648 191,151.5C 191.464,150.906 191.631,150.239 191.5,149.5C 193.09,149.372 194.423,148.705 195.5,147.5C 197.902,145.103 199.902,142.436 201.5,139.5C 205.075,136.35 207.075,132.35 207.5,127.5C 208.875,124.627 209.875,121.627 210.5,118.5C 210.5,117.167 210.5,115.833 210.5,114.5C 211.245,111.61 211.912,108.61 212.5,105.5 Z"/></g>
<g><path style="opacity:0.992" fill="#29b2ed" d="M 117.5,101.5 C 120.906,103.624 124.573,105.124 128.5,106C 127.577,108.041 127.244,110.208 127.5,112.5C 130.776,113.799 134.11,115.132 137.5,116.5C 138.711,117.72 138.711,118.887 137.5,120C 141.13,123.548 142.297,127.715 141,132.5C 146.201,134.513 149.867,138.179 152,143.5C 153.11,145.037 154.61,145.703 156.5,145.5C 157.421,150.014 158.921,154.347 161,158.5C 162.026,161.693 164.192,163.026 167.5,162.5C 167.389,163.117 167.056,163.617 166.5,164C 163.183,164.498 159.85,164.665 156.5,164.5C 155.234,163.91 153.901,163.41 152.5,163C 155.804,161.715 156.47,159.548 154.5,156.5C 152.073,156.477 149.74,155.977 147.5,155C 149.35,151.534 148.35,149.701 144.5,149.5C 142.236,142.379 139.57,135.379 136.5,128.5C 134.892,127.682 133.225,127.015 131.5,126.5C 130.585,124.082 129.085,122.082 127,120.5C 126.474,117.728 125.641,115.062 124.5,112.5C 119.077,110.476 116.743,106.809 117.5,101.5 Z"/></g>
<g><path style="opacity:0.237" fill="#7bacfc" d="M 62.5,96.5 C 62.391,114.353 63.0576,132.02 64.5,149.5C 63.8519,151.086 63.3519,152.753 63,154.5C 62.6174,153.944 62.1174,153.611 61.5,153.5C 61.1697,134.326 61.503,115.326 62.5,96.5 Z"/></g>
</svg>

<svg xmlns="http://www.w3.org/2000/svg" width="276" height="263" style="shape-rendering:geometricPrecision;text-rendering:geometricPrecision;image-rendering:optimizeQuality;fill-rule:evenodd;clip-rule:evenodd"><path style="opacity:.996" fill="#0865fd" d="M164.5 30.5c1.42 2.849 3.42 3.516 6 2 8.652 2.159 16.319 6.159 23 12-.333 3 1 4.333 4 4-.412 2.473.588 3.806 3 4 3.601 3.614 5.935 7.947 7 13a287.04 287.04 0 0 1 2.5 13c.5 11.995.667 23.995.5 36v4c-2.514-6.71-6.514-12.544-12-17.5a49.855 49.855 0 0 0-9-3 220.94 220.94 0 0 0-21-.5 625.626 625.626 0 0 0-50 1c-4.025.13-7.691 1.13-11 3-1.653.16-2.986.826-4 2-2.657.435-4.99 1.435-7 3-3.421 1.039-6.088 3.039-8 6-10.368 7.385-17.868 17.052-22.5 29a34.084 34.084 0 0 0-1.5 8 599.674 599.674 0 0 1-2-53v-19c2.475-2.75 3.475-6.084 3-10 .566-3.373 1.9-6.373 4-9 1.548-.321 2.215-1.321 2-3 2.412-.194 3.412-1.527 3-4 2.797-.467 4.13-2.133 4-5 2.867.13 4.533-1.203 5-4h1c3.565-.91 6.232-2.91 8-6 1.32-1.442 2.986-2.108 5-2 4.544.04 8.544-1.292 12-4a378.634 378.634 0 0 1 55 0z"/><path style="opacity:.973" fill="#669bf8" d="M164.5 30.5c2.398-.24 4.398.426 6 2-2.58 1.516-4.58.849-6-2z"/><path style="opacity:.712" fill="#609bf5" d="M109.5 30.5c-3.456 2.708-7.456 4.04-12 4 3.598-2.24 7.598-3.574 12-4z"/><path style="opacity:.678" fill="#6497f7" d="M92.5 36.5c-1.768 3.09-4.435 5.09-8 6 1.912-2.961 4.579-4.961 8-6z"/><path style="opacity:.569" fill="#79a9f5" d="M83.5 42.5c-.467 2.797-2.133 4.13-5 4 1.08-2.043 2.746-3.376 5-4z"/><path style="opacity:.737" fill="#6ca4f6" d="M193.5 44.5c1.667 1 3 2.333 4 4-3 .333-4.333-1-4-4z"/><path style="opacity:.569" fill="#7facf6" d="M78.5 46.5c.13 2.867-1.203 4.533-4 5 .624-2.254 1.957-3.92 4-5z"/><path style="opacity:.569" fill="#7aacf5" d="M197.5 48.5c1.474.936 2.474 2.27 3 4-2.412-.194-3.412-1.527-3-4z"/><path style="opacity:.655" fill="#72a7f4" d="M74.5 51.5c.412 2.473-.588 3.806-3 4 .526-1.73 1.526-3.064 3-4z"/><path style="opacity:.42" fill="#6ba8f6" d="M71.5 55.5c.215 1.679-.452 2.679-2 3-.073-1.527.594-2.527 2-3z"/><path style="opacity:.898" fill="#6fa5f3" d="M65.5 67.5c.475 3.916-.525 7.25-3 10 .4-3.617 1.4-6.95 3-10z"/><path style="opacity:.518" fill="#5393fa" d="M207.5 65.5c2.556 3.85 4.056 8.184 4.5 13 .5 8.994.666 17.994.5 27-.588 3.11-1.255 6.11-2 9a647.86 647.86 0 0 0-.5-36 287.04 287.04 0 0 0-2.5-13z"/><path style="opacity:.979" fill="#26aaef" d="M118.5 98.5h7c1.906.982 3.906 1.982 6 3a132.572 132.572 0 0 1 13 24.5 68.085 68.085 0 0 0 4 2l-1 1c1.71 4.213 4.377 7.713 8 10.5a104.265 104.265 0 0 0 11 16 81.805 81.805 0 0 0 7 2c2.029-1.129 2.363-.629 1 1.5 2.275.405 4.275-.095 6-1.5l4-1c-.558 1.29-1.558 2.123-3 2.5a107.437 107.437 0 0 1-14 3.5c-3.308.526-5.474-.807-6.5-4a52.26 52.26 0 0 1-4.5-13c-1.89.203-3.39-.463-4.5-2-2.133-5.321-5.799-8.987-11-11 1.297-4.785.13-8.952-3.5-12.5 1.211-1.113 1.211-2.28 0-3.5-3.39-1.368-6.724-2.701-10-4-.256-2.292.077-4.459 1-6.5a35.07 35.07 0 0 1-11-4.5h-10c3.309-1.87 6.975-2.87 11-3z"/><path style="opacity:.986" fill="#22a3f1" d="M125.5 98.5h16v3c6.035.548 8.535 3.881 7.5 10a26.585 26.585 0 0 1 3.5 2 82.671 82.671 0 0 0 8.5 15c.47 6.65 3.637 11.65 9.5 15a28.043 28.043 0 0 1 1.5 5l5 3c.424 2.525 1.59 4.525 3.5 6-1.725 1.405-3.725 1.905-6 1.5 1.363-2.129 1.029-2.629-1-1.5a81.805 81.805 0 0 1-7-2 104.265 104.265 0 0 1-11-16c-3.623-2.787-6.29-6.287-8-10.5l1-1a68.085 68.085 0 0 1-4-2 132.572 132.572 0 0 0-13-24.5 287.054 287.054 0 0 1-6-3z"/><path style="opacity:.972" fill="#1487f6" d="M118.5 98.5a625.626 625.626 0 0 1 50-1v1a87.424 87.424 0 0 0 10.5 14c.591 5.864 3.591 9.864 9 12 .483.948.649 1.948.5 3h6c-.126 1.7-.793 3.2-2 4.5 1.986 2.426 3.32 5.259 4 8.5a14.72 14.72 0 0 0 1.5-5c.498 2.044 1.665 3.378 3.5 4a34.666 34.666 0 0 1-6 8c-1.077 1.205-2.41 1.872-4 2-1.517-.011-2.684-.677-3.5-2-1.201-3.21-3.201-5.877-6-8-.516-2.534-1.683-4.7-3.5-6.5l1-1c-1.361-1.584-2.028-3.418-2-5.5a12.93 12.93 0 0 1-5-.5l1-1a515.953 515.953 0 0 0-16-26 128.43 128.43 0 0 0-16-.5h-23z"/><path style="opacity:.98" fill="#0e7df8" d="M168.5 98.5c5.344-.166 10.677 0 16 .5a7.296 7.296 0 0 0 3 2c1.342 4.427 4.175 8.26 8.5 11.5a35.145 35.145 0 0 0 5 10c1.11 1.537 2.61 2.203 4.5 2-.215 1.679.452 2.679 2 3-.425 4.85-2.425 8.85-6 12-1.835-.622-3.002-1.956-3.5-4a14.72 14.72 0 0 1-1.5 5c-.68-3.241-2.014-6.074-4-8.5 1.207-1.3 1.874-2.8 2-4.5h-6a4.934 4.934 0 0 0-.5-3c-5.409-2.136-8.409-6.136-9-12a87.424 87.424 0 0 1-10.5-14z"/><path style="opacity:.994" fill="#0671fb" d="M168.5 98.5v-1c7.008-.166 14.008 0 21 .5a49.855 49.855 0 0 1 9 3c5.486 4.956 9.486 10.79 12 17.5a38.035 38.035 0 0 1-3 9c-1.548-.321-2.215-1.321-2-3-1.89.203-3.39-.463-4.5-2a35.145 35.145 0 0 1-5-10c-4.325-3.24-7.158-7.073-8.5-11.5a7.296 7.296 0 0 1-3-2 128.43 128.43 0 0 0-16-.5z"/><path style="opacity:.989" fill="#2fbceb" d="M107.5 101.5h10c-.757 5.309 1.577 8.976 7 11a36.167 36.167 0 0 1 2.5 8c2.085 1.582 3.585 3.582 4.5 6a29.825 29.825 0 0 1 5 2 200.709 200.709 0 0 1 8 21c3.85.201 4.85 2.034 3 5.5a17.758 17.758 0 0 0 7 1.5c1.97 3.048 1.304 5.215-2 6.5 1.401.41 2.734.91 4 1.5-4.869 1.251-9.869 1.251-15 0-1.943-2.139-2.61-4.472-2-7-.774-1.211-1.607-1.211-2.5 0l-12-22c-4.669-4.144-7.835-9.144-9.5-15-3.893-2.136-6.06-5.469-6.5-10-1.371-2.766-3.204-5.099-5.5-7 1.014-1.174 2.347-1.84 4-2z"/><path style="opacity:.985" fill="#1b96f3" d="M141.5 98.5c5.344-.166 10.677 0 16 .5a515.953 515.953 0 0 1 16 26l-1 1a12.93 12.93 0 0 0 5 .5c-.028 2.082.639 3.916 2 5.5l-1 1c1.817 1.8 2.984 3.966 3.5 6.5 2.799 2.123 4.799 4.79 6 8 .816 1.323 1.983 1.989 3.5 2a2.428 2.428 0 0 1-.5 2c-2.638 1.148-4.804 2.815-6.5 5l-4 1c-1.91-1.475-3.076-3.475-3.5-6l-5-3a28.043 28.043 0 0 0-1.5-5c-5.863-3.35-9.03-8.35-9.5-15a82.671 82.671 0 0 1-8.5-15 26.585 26.585 0 0 0-3.5-2c1.035-6.119-1.465-9.452-7.5-10v-3z"/><path style="opacity:.977" fill="#34c2e9" d="M103.5 103.5c2.296 1.901 4.129 4.234 5.5 7 .44 4.531 2.607 7.864 6.5 10 1.665 5.856 4.831 10.856 9.5 15l12 22c.893-1.211 1.726-1.211 2.5 0-.61 2.528.057 4.861 2 7h-4a25.14 25.14 0 0 1-4.5-4 98.539 98.539 0 0 1-6-13 13.92 13.92 0 0 0-4-3 2242.738 2242.738 0 0 1-9.5-15.5c.235-.873.569-1.707 1-2.5a151.88 151.88 0 0 1-9.5-11c.351-5.923-2.482-8.923-8.5-9 2.01-1.565 4.343-2.565 7-3z"/><path style="opacity:.979" fill="#39cae7" d="M96.5 106.5c6.018.077 8.851 3.077 8.5 9a151.88 151.88 0 0 0 9.5 11 11.456 11.456 0 0 0-1 2.5 2242.738 2242.738 0 0 0 9.5 15.5 13.92 13.92 0 0 1 4 3 98.539 98.539 0 0 0 6 13 25.14 25.14 0 0 0 4.5 4c-.06.543-.393.876-1 1a162.835 162.835 0 0 1-10-2.5c-.923-2.041-1.256-4.208-1-6.5a9.108 9.108 0 0 1-5-1c-1.09-.891-1.09-1.891 0-3a15.014 15.014 0 0 0-3.5-4c-1.73 1.149-3.396 1.149-5 0l-1-11a76.236 76.236 0 0 1-6.5-6c.029-1.529.696-2.696 2-3.5a20.431 20.431 0 0 1-5.5-1.5l-1-7a12.8 12.8 0 0 1-3-6 10.939 10.939 0 0 0-4.5-3c-1.122 1.13-2.456 1.797-4 2 1.912-2.961 4.579-4.961 8-6z"/><path style="opacity:.994" fill="#3fd1e6" d="M212.5 105.5c30.407 21.051 40.241 49.384 29.5 85-10.924 25.221-30.09 39.388-57.5 42.5a930.035 930.035 0 0 1-61 0c-34.748-5.748-55.248-25.915-61.5-60.5-.5-6.325-.666-12.658-.5-19 .617.111 1.117.444 1.5 1a27.587 27.587 0 0 1 1.5-5 34.084 34.084 0 0 1 1.5-8c4.632-11.948 12.132-21.615 22.5-29 1.544-.203 2.878-.87 4-2a10.939 10.939 0 0 1 4.5 3 12.8 12.8 0 0 0 3 6l1 7a20.431 20.431 0 0 0 5.5 1.5c-1.304.804-1.971 1.971-2 3.5a76.236 76.236 0 0 0 6.5 6l1 11c1.604 1.149 3.27 1.149 5 0a15.014 15.014 0 0 1 3.5 4c-1.09 1.109-1.09 2.109 0 3a9.108 9.108 0 0 0 5 1c-.256 2.292.077 4.459 1 6.5 3.315.941 6.648 1.774 10 2.5.607-.124.94-.457 1-1h4c5.131 1.251 10.131 1.251 15 0 3.35.165 6.683-.002 10-.5.556-.383.889-.883 1-1.5 4.732-.85 9.399-2.016 14-3.5 1.442-.377 2.442-1.21 3-2.5 1.696-2.185 3.862-3.852 6.5-5a2.428 2.428 0 0 0 .5-2c1.59-.128 2.923-.795 4-2a34.666 34.666 0 0 0 6-8c3.575-3.15 5.575-7.15 6-12a38.035 38.035 0 0 0 3-9v-4c.745-2.89 1.412-5.89 2-9z"/><path style="opacity:.992" fill="#29b2ed" d="M117.5 101.5a35.07 35.07 0 0 0 11 4.5c-.923 2.041-1.256 4.208-1 6.5 3.276 1.299 6.61 2.632 10 4 1.211 1.22 1.211 2.387 0 3.5 3.63 3.548 4.797 7.715 3.5 12.5 5.201 2.013 8.867 5.679 11 11 1.11 1.537 2.61 2.203 4.5 2a52.26 52.26 0 0 0 4.5 13c1.026 3.193 3.192 4.526 6.5 4-.111.617-.444 1.117-1 1.5-3.317.498-6.65.665-10 .5a28.208 28.208 0 0 0-4-1.5c3.304-1.285 3.97-3.452 2-6.5a17.758 17.758 0 0 1-7-1.5c1.85-3.466.85-5.299-3-5.5a200.709 200.709 0 0 0-8-21 29.825 29.825 0 0 0-5-2c-.915-2.418-2.415-4.418-4.5-6a36.167 36.167 0 0 0-2.5-8c-5.423-2.024-7.757-5.691-7-11z"/><path style="opacity:.237" fill="#7bacfc" d="M62.5 96.5a599.674 599.674 0 0 0 2 53 27.587 27.587 0 0 0-1.5 5c-.383-.556-.883-.889-1.5-1a812.816 812.816 0 0 1 1-57z"/></svg>
